X:1
T:Rejoice, Rejoice, Believer
T:Rejoice, Rejoice, Believer
T:Hubert Platt Main 
T:Frances Jane (Fanny) Crosby, 1887
T:Public Domain Courtesy of the Cyber Hymnal™
T:Public Domain Courtesy of the Cyber Hymnal™
C:Hubert Platt Main
Z:Public Domain
Z:Courtesy of the Cyber Hymnal™
%%score ( 1 2 ) ( 3 4 )
L:1/8
Q:1/4=113
M:4/4
K:D
V:1 treble 
V:2 treble 
V:3 bass 
V:4 bass 
V:1
 [FA]2 | [Fd]3 [Ac] [GB]2 [Gd]2 | [FA]4 [DF]2 [FA]2 | [EG]3 [DF] [CE]2 [EG]2 | %4
w: 1.~Re-|joice, re- joice, be-|liev- er, And|let thy joy and|
w: 2.~Re-|joice in thy Re-|deem- er, Thou|hast a place that|
w: 3.~Re-|joice, re- joice, be-|liev- er, A|home on high is|
w: 4.~Re-|joice, re- joice, be-|liev- er, Press|on to join the|
 [Ac][GB][FA][EG] [DF]2 [FA]2 | [Fd]3 [Ac] [GB]2 [Gd]2 | [FA]4 [DF]2 A2 | [GB]3 [GB] [FA]2 [Ad]2 | %8
w: glo- ry ev- er be In|Him, the great De-|liv- erer, Who|gave Him- self a|
w: no- thing can re- move; He|bids thee dwell in|safe- ty, And|rest be- neath the|
w: wait- ing now for thee; And|there, in all His|beau- ty, The|King of saints with|
w: hap- py, hap- py throng; Where|soon thy Lord shall|call thee To|realms of joy and|
 [FA][EG][DF][CE] !fermata!D2 ||"^Refrain" [DF]2 | [EG]6 [GB]2 | [FA]4 [DF]2 [FA]2 | B6 [Bd]2 | %13
w: sa- cri- fice for thee.|||||
w: sha- dow of His love.|Re-|joice, be-|liev- er, re-|joice and|
w: won- der thou shalt see.|||||
w: ev- er- last- ing song.|||||
 ([Ac]4 [GB]2) [GA]2 | [Fd]3 [Fc] (ed) ([Ac][GB]) | ([FA]3 [EG]) [DF]2 [FA]2 | %16
w: |||
w: sing * Of|Him who lives * for- *|ev- * er, Thy|
w: |||
w: |||
 [GB]2 [Ad]2 [Ge]3 [Ec] | [Fd]6 |] %18
w: ||
w: great high priest and|king.|
w: ||
w: ||
V:2
 x2 | x8 | x8 | x8 | x8 | x8 | x6 A2 | x8 | x4 D2 || x2 | x8 | x8 | (G4 ^G2) x2 | x8 | x4 G2 x2 | %15
 x8 | x8 | x6 |] %18
V:3
 [D,A,]2 | [D,A,]3 [D,A,] [D,B,]2 [D,B,]2 | [D,D]4 [D,A,]2 [D,A,]2 | %3
w: ~|~ ~ ~ ~|~ ~ ~|
 [A,,A,]3 [A,,A,] [A,,A,]2 [A,,A,]2 | [A,,A,][A,,A,][A,,C][A,,C] [D,D]2 [D,D]2 | %5
w: ~ ~ ~ ~|~ ~ ~ ~ ~ ~|
 [D,A,]3 [D,A,] [D,B,]2 [D,B,]2 | [D,D]4 [D,A,]2 [F,D]2 | [G,D]3 [B,D] D2 [F,D]2 | %8
w: ~ ~ ~ ~|~ ~ ~|~ ~ ~ ~|
 [A,D]A,[A,,A,][A,,G,] !fermata![D,F,]2 || [D,A,]2 | [A,,A,]2 [A,,A,][A,,A,] [A,,C]2 [A,,C]2 | %11
w: ~ ~ ~ ~ ~|~|~ O re- joice, ~|
 [D,D]4 [D,A,]2 [D,D]2 | [G,D]2 [G,D][G,D] [E,E]2 [E,E]2 | (E4 C2) [A,C]2 | %14
w: ~ ~ ~|~ O re- joice, *||
 [D,D]3 [D,A,] [G,B,]2 [G,D]2 | (D3 A,) [D,A,]2 [D,D]2 | [G,D]2 [F,D]2 [E,B,]3 A, | [D,A,]6 |] %18
w: ||||
V:4
 x2 | x8 | x8 | x8 | x8 | x8 | x8 | x4 D2 x2 | x A, x4 || x2 | x8 | x8 | x8 | A,6 x2 | x8 | %15
 D,4 x4 | x7 A, | x6 |] %18

